src/assets/images/banner.svg

<svg viewBox="0 0 1280.16 715.99" xmlns="http://www.w3.org/2000/svg"><path d="m334.37 509.33-99.34-57.35-99.33 57.35v114.7l99.33 57.36 99.34-57.36z" fill="#383838" stroke="#383839" stroke-miterlimit="10"/><path d="m1280.16 0v715.99h-921.84l67.71-39.09v-220.44l-190.91-110.22-.04.03-190.87 110.19v220.44l67.7 39.09h-111.91v-715.99z" fill="#383838" stroke="#383839" stroke-miterlimit="10"/><g fill="#242424"><path d="m235.08 346.27h-.05l-190.91 110.19v220.44l67.7 39.1h246.42l67.7-39.09v-220.45zm-.08 335.12-99.39-57.39v-114.67l99.39-57.33 99.29 57.33v114.67l-99.29 57.37z" stroke="#383839" stroke-miterlimit="10"/><path d="m1114.28 101.52-111.06 64.12v128.24l111.06 64.12 111.06-64.12v-128.24zm57.72 161.6-57.79 33.37-57.79-33.37v-66.72l57.81-33.4 57.77 33.4z"/><path d="m533.48 14.79-32.77 18.91v37.83l32.77 18.92 32.76-18.92v-37.83zm17 47.67-17 9.84-17.05-9.84v-19.69l17.05-9.84 17 9.84z"/><path d="m79.73 144.12-16.38 9.46v18.91l16.38 9.51 16.38-9.46v-18.96zm8.51 23.88-8.52 4.92-8.52-4.92v-9.85l8.52-4.92 8.52 4.92z"/><path d="m1263 587.56 17.21 9.93v-29.62l-17.21-9.87-53.45 30.86v61.72l53.45 30.81 17.19-9.92v-29.62l-17.19 9.93-27.82-16v-32.17z"/></g><path d="m111.82 715.99h.09 246.33.08" fill="none" stroke="#383839" stroke-miterlimit="10"/></svg>

<svg id="reference" xmlns="http://www.w3.org/2000/svg" viewBox="0 0 1280.16 715.99"><defs><style>.cls-1{fill:#383838;}.cls-1,.cls-2,.cls-4{stroke:#383839;stroke-miterlimit:10;}.cls-2,.cls-3{fill:#242424;}.cls-4{fill:none;}</style></defs><title>banner</title><polygon class="cls-1" points="334.37 509.33 235.03 451.98 135.7 509.33 135.7 624.03 235.03 681.39 334.37 624.03 334.37 509.33"/><polygon class="cls-1" points="1280.16 0 1280.16 715.99 358.32 715.99 426.03 676.9 426.03 456.46 235.12 346.24 235.08 346.27 44.21 456.46 44.21 676.9 111.91 715.99 0 715.99 0 0 1280.16 0"/><path class="cls-2" d="M235.08,346.27l-.05,0L44.12,456.46V676.9L111.82,716H358.24l67.7-39.09V456.46ZM235,681.39,135.61,624V509.33L235,452l0,0,99.29,57.33V624L235,681.37Z"/><path class="cls-3" d="M1114.28,101.52l-111.06,64.12V293.88L1114.28,358l111.06-64.12V165.64ZM1172,263.12l-57.79,33.37-57.79-33.37V196.4L1114.23,163,1172,196.4Z"/><path class="cls-3" d="M533.48,14.79,500.71,33.7V71.53l32.77,18.92,32.76-18.92V33.7Zm17,47.67-17,9.84-17.05-9.84V42.77l17.05-9.84,17,9.84Z"/><path class="cls-3" d="M79.73,144.12l-16.38,9.46v18.91L79.73,182l16.38-9.46V153.58ZM88.24,168l-8.52,4.92L71.2,168v-9.85l8.52-4.92,8.52,4.92Z"/><path class="cls-3" d="M1263,587.56l17.21,9.93V567.87L1263,558l-53.45,30.86v61.72L1263,681.39l17.19-9.92V641.85L1263,651.78l-27.82-16V603.61Z"/><polyline class="cls-4" points="111.82 715.99 111.91 715.99 358.24 715.99 358.32 715.99"/></svg>
